modules/hawcons-filled/icons/icon-40-checkered-flag.svg

<?xml version="1.0" encoding="UTF-8" standalone="no"?>
<svg width="32px" height="32px" viewBox="0 0 32 32" version="1.1" xmlns="http://www.w3.org/2000/svg" xmlns:xlink="http://www.w3.org/1999/xlink" xmlns:sketch="http://www.bohemiancoding.com/sketch/ns">
    <!-- Generator: Sketch 3.0.3 (7891) - http://www.bohemiancoding.com/sketch -->
    <title>icon 40 checkered flag</title>
    <desc>Created with Sketch.</desc>
    <defs></defs>
    <g id="Page-1" stroke="none" stroke-width="1" fill="none" fill-rule="evenodd" sketch:type="MSPage">
        <g id="icon-40-checkered-flag" sketch:type="MSArtboardGroup" fill="#929292">
            <path d="M19,5.8132889 C18.197655,5.66928886 17.3356633,5.42106413 16.4425049,5.02193867 C15.5710959,4.63253237 14.7524738,4.38080993 14,4.22746321 L14,4.22746321 L14,8.17912786 C11.2275178,7.68486027 9.00012966,8.41160018 9,8.41164248 L9,12.5685226 L9,12.5685226 C9.00011038,12.5684667 10.9605781,11.5749195 14,12.2008957 L14,16.1995053 C14.8040051,16.341288 15.6539222,16.5847904 16.5087891,16.9770778 C17.3964991,17.3844365 18.2319354,17.6451727 19,17.8018971 L19,17.793349 L19,13.797991 C21.8883365,14.3170686 23.9998781,13.4744771 24,13.4744284 L24.0175781,13.4744284 L24.0175781,9.38879997 L24,9.40318817 C23.9998881,9.40324531 22.0244025,10.4115992 19,9.79334903 L19,5.8132889 L19,5.8132889 L19,5.8132889 Z M8,11.9939236 L8,28.9939236 L9,28.9939236 L9,17.5387624 C10.377296,17.0432589 13.0805236,16.5047312 16.5,17.9939238 C21.522644,20.1813011 25,17.9939236 25,17.9939236 L25,3.99392359 C25,3.99392359 21.5237426,6.23025181 16.5,3.9939236 C11.4762573,1.75759551 8,3.99392359 8,3.99392359 L8,11.9939236 L8,11.9939236 L8,11.9939236 Z M14,8.20089571 L14,12.1791279 C14.8013354,12.3219869 15.6482077,12.5668481 16.5,12.9607399 C17.3911825,13.3728468 18.2296197,13.6358674 19,13.793349 L19,9.79799098 C18.1952748,9.65336974 17.3302513,9.40304943 16.4337934,8.99935923 C15.5656631,8.60842539 14.7499845,8.35535681 14,8.20089571 L14,8.20089571 L14,8.20089571 Z" id="checkered-flag" sketch:type="MSShapeGroup"></path>
        </g>
    </g>
</svg>

<svg width="32" height="32" xmlns="http://www.w3.org/2000/svg"><path d="M19 5.813a11.033 11.033 0 0 1-2.557-.791c-.872-.39-1.69-.641-2.443-.795V8.18c-2.772-.494-5 .233-5 .233v4.157s1.96-.994 5-.368V16.2c.804.141 1.654.385 2.509.777.887.407 1.723.668 2.491.825V13.798c2.888.52 5-.324 5-.324h.018V9.39L24 9.403s-1.976 1.009-5 .39v-3.98zm-11 6.18v17h1V17.54c1.377-.496 4.08-1.034 7.5.455 5.023 2.187 8.5 0 8.5 0v-14s-3.476 2.236-8.5 0-8.5 0-8.5 0v8zm6-3.792v3.978c.801.143 1.648.388 2.5.782.891.412 1.73.675 2.5.832V9.798a10.957 10.957 0 0 1-2.566-.799A11.642 11.642 0 0 0 14 8.201z" fill="#929292" fill-rule="evenodd"/></svg>
